Papirus-nordic/24x24/places/folder-red-visiting.svg

<svg xmlns="http://www.w3.org/2000/svg" width="24" height="24" version="1"><rect width="20" height="12" x="2" y="9.5" rx="1" ry="1" opacity=".2"/><path d="M2 17c0 .554.446 1 1 1h18c.554 0 1-.446 1-1V6c0-.554-.446-1-1-1H11V4c0-.554-.446-1-1-1H3c-.554 0-1 .446-1 1" fill="#ae4f58"/><rect width="20" height="12" x="2" y="8.5" rx="1" ry="1" opacity=".2"/><rect width="16" height="8" x="4" y="7" rx="1" ry="1" fill="#e4e4e4"/><rect width="20" height="12" x="2" y="9" rx="1" ry="1" fill="#bf616a"/><path d="M3 3c-.554 0-1 .446-1 1v.5c0-.554.446-1 1-1h7c.554 0 1 .446 1 1V4c0-.554-.446-1-1-1zm8 2v.5h10c.554 0 1 .446 1 1V6c0-.554-.446-1-1-1z" opacity=".1" fill="#fff"/><path d="M3 9c-.554 0-1 .446-1 1v.654L19.918 21H21c.554 0 1-.446 1-1v-.299L3.463 9H3zm3.928 0L22 17.701v-2.5L11.258 9h-4.33zm7.795 0L22 13.201v-2.5L19.053 9h-4.33zM2 12.654v2.5L12.125 21h4.328L2 12.654zm0 4.5v2.5L4.33 21h4.33L2 17.154z" fill="#974a4d"/></svg>

<svg xmlns="http://www.w3.org/2000/svg" width="24" height="24" version="1">
 <rect style="opacity:0.2" width="20" height="12" x="2" y="9.5" rx="1" ry="1"/>
 <path style="fill:#ae4f58" d="M 2,17 C 2,17.554 2.446,18 3,18 H 21 C 21.554,18 22,17.554 22,17 V 6 C 22,5.446 21.554,5 21,5 H 11 V 4 C 11,3.446 10.554,3 10,3 H 3 C 2.446,3 2,3.446 2,4"/>
 <rect style="opacity:0.2" width="20" height="12" x="2" y="8.5" rx="1" ry="1"/>
 <rect style="fill:#e4e4e4" width="16" height="8" x="4" y="7" rx="1" ry="1"/>
 <rect style="fill:#bf616a" width="20" height="12" x="2" y="9" rx="1" ry="1"/>
 <path style="opacity:0.1;fill:#ffffff" d="M 3,3 C 2.446,3 2,3.446 2,4 V 4.5 C 2,3.946 2.446,3.5 3,3.5 H 10 C 10.554,3.5 11,3.946 11,4.5 V 4 C 11,3.446 10.554,3 10,3 Z M 11,5 V 5.5 H 21 C 21.554,5.5 22,5.946 22,6.5 V 6 C 22,5.446 21.554,5 21,5 Z"/>
 <path style="fill:#974a4d" d="M 3 9 C 2.446 9 2 9.446 2 10 L 2 10.654 L 19.918 21 L 21 21 C 21.554 21 22 20.554 22 20 L 22 19.701 L 3.4629 9 L 3 9 z M 6.9277 9 L 22 17.701 L 22 15.201 L 11.258 9 L 6.9277 9 z M 14.723 9 L 22 13.201 L 22 10.701 L 19.053 9 L 14.723 9 z M 2 12.654 L 2 15.154 L 12.125 21 L 16.453 21 L 2 12.654 z M 2 17.154 L 2 19.654 L 4.3301 21 L 8.6602 21 L 2 17.154 z"/>
</svg>
